public/LOGO-W.svg

<svg width="117" height="129" viewBox="0 0 117 129" fill="none" xmlns="http://www.w3.org/2000/svg">
<path d="M56.0959 129V20.5628L28.8493 0L0 18.6045V59.7301L28.0479 79.3137L46.4795 66.5844L35.2603 79.3137V112.606L46.4795 129H56.0959Z" fill="white"/>
<path d="M26.731 13.7085L42.9407 25.1437V48.0141L26.731 59.4493L10.5213 48.0141V25.1437L26.731 13.7085Z" fill="#272727"/>
<path d="M60.9041 129V20.5628L88.1507 0L117 18.6045V59.7301L88.9521 79.3137L70.5205 66.5844L81.7397 79.3137V112.606L70.5205 129H60.9041Z" fill="white"/>
<path d="M90.269 13.7085L74.0593 25.1437V48.0141L90.269 59.4493L106.479 48.0141V25.1437L90.269 13.7085Z" fill="#272727"/>
</svg>

<svg width="117" height="129" fill="none" xmlns="http://www.w3.org/2000/svg"><path d="M56.096 129V20.563L28.849 0 0 18.605V59.73l28.048 19.584 18.432-12.73-11.22 12.73v33.292L46.48 129h9.616z" fill="#fff"/><path d="M26.731 13.709l16.21 11.435v22.87L26.73 59.45l-16.21-11.435v-22.87l16.21-11.435z" fill="#272727"/><path d="M60.904 129V20.563L88.151 0 117 18.605V59.73L88.952 79.314l-18.431-12.73 11.219 12.73v33.292L70.52 129h-9.616z" fill="#fff"/><path d="M90.269 13.709l-16.21 11.435v22.87L90.27 59.45l16.21-11.435v-22.87l-16.21-11.435z" fill="#272727"/></svg>
